src/rounded/icons/fi-rr-resize.svg

<svg id="Layer_1" height="512" viewBox="0 0 24 24" width="512" xmlns="http://www.w3.org/2000/svg" data-name="Layer 1"><path d="m19 0h-8a5.006 5.006 0 0 0 -5 5v6h-1a5.006 5.006 0 0 0 -5 5v3a5.006 5.006 0 0 0 5 5h3a5.006 5.006 0 0 0 5-5v-1h6a5.006 5.006 0 0 0 5-5v-8a5.006 5.006 0 0 0 -5-5zm-8 16a3 3 0 0 1 -3-3 3 3 0 0 1 3 3zm0 3a3 3 0 0 1 -3 3h-3a3 3 0 0 1 -3-3v-3a3 3 0 0 1 3-3h1a5.006 5.006 0 0 0 5 5zm11-6a3 3 0 0 1 -3 3h-6a4.969 4.969 0 0 0 -.833-2.753l5.833-5.833v2.586a1 1 0 0 0 2 0v-3a3 3 0 0 0 -3-3h-3a1 1 0 0 0 0 2h2.586l-5.833 5.833a4.969 4.969 0 0 0 -2.753-.833v-6a3 3 0 0 1 3-3h8a3 3 0 0 1 3 3z"/></svg>

<svg id="Layer_1" data-name="Layer 1" xmlns="http://www.w3.org/2000/svg" viewBox="0 0 24 24"><path d="M19,0H11A5.006,5.006,0,0,0,6,5v6H5a5.006,5.006,0,0,0-5,5v3a5.006,5.006,0,0,0,5,5H8a5.006,5.006,0,0,0,5-5V18h6a5.006,5.006,0,0,0,5-5V5A5.006,5.006,0,0,0,19,0ZM11,16a3,3,0,0,1-3-3A3,3,0,0,1,11,16Zm0,3a3,3,0,0,1-3,3H5a3,3,0,0,1-3-3V16a3,3,0,0,1,3-3H6a5.006,5.006,0,0,0,5,5Zm11-6a3,3,0,0,1-3,3H13a4.969,4.969,0,0,0-.833-2.753L18,7.414V10a1,1,0,0,0,2,0V7a3,3,0,0,0-3-3H14a1,1,0,0,0,0,2h2.586l-5.833,5.833A4.969,4.969,0,0,0,8,11V5a3,3,0,0,1,3-3h8a3,3,0,0,1,3,3Z"/></svg>
